X: 4158
T: Blue Island
R: jig
M: 6/8
K: Ddorian
|:AdB cAG|~F3 GEC|DEF GFG|Add d2e|
fed cAG|AdB cAG|~F3 GEC|EDD DE/F/G:|
|:Add Acc|AdB cAG|Add Acc|ABc d2e|
faf gec|fed cAG|~F3 GEC|EDD DE/F/G:|

